krita/pics/misc-dark/dark_pivot-point.svg

<svg xmlns:dc="http://purl.org/dc/elements/1.1/" xmlns:cc="http://creativecommons.org/ns#" xmlns:rdf="http://www.w3.org/1999/02/22-rdf-syntax-ns#" xmlns="http://www.w3.org/2000/svg" version="1.1" width="16" height="16" id="svg6190"><metadata id="metadata6196"><rdf:RDF><cc:Work><dc:format>image/svg+xml</dc:format><dc:type rdf:resource="http://purl.org/dc/dcmitype/StillImage"/><dc:title/><dc:date>2021</dc:date><dc:creator><cc:Agent><dc:title>Timothée Giet</dc:title></cc:Agent></dc:creator><cc:license rdf:resource="http://creativecommons.org/licenses/by-sa/4.0/"/></cc:Work><cc:License rdf:about="http://creativecommons.org/licenses/by-sa/4.0/"><cc:permits rdf:resource="http://creativecommons.org/ns#Reproduction"/><cc:permits rdf:resource="http://creativecommons.org/ns#Distribution"/><cc:requires rdf:resource="http://creativecommons.org/ns#Notice"/><cc:requires rdf:resource="http://creativecommons.org/ns#Attribution"/><cc:permits rdf:resource="http://creativecommons.org/ns#DerivativeWorks"/><cc:requires rdf:resource="http://creativecommons.org/ns#ShareAlike"/></cc:License></rdf:RDF></metadata><g id="g6344" transform="translate(0 -7)"><rect style="color:#000;clip-rule:nonzero;display:inline;overflow:visible;visibility:visible;opacity:1;isolation:auto;mix-blend-mode:normal;color-interpolation:sRGB;color-interpolation-filters:linearRGB;solid-color:#000;solid-opacity:1;fill:#373737;fill-opacity:1;fill-rule:evenodd;stroke:none;stroke-width:1.16666663;stroke-linecap:square;stroke-linejoin:round;stroke-miterlimit:4;stroke-dasharray:none;stroke-dashoffset:0;stroke-opacity:1;marker:none;color-rendering:auto;image-rendering:auto;shape-rendering:auto;text-rendering:auto;enable-background:accumulate" id="rect4411-3" width="2" height="3" x="-16" y="1" transform="rotate(-90)"/><rect style="color:#000;clip-rule:nonzero;display:inline;overflow:visible;visibility:visible;opacity:1;isolation:auto;mix-blend-mode:normal;color-interpolation:sRGB;color-interpolation-filters:linearRGB;solid-color:#000;solid-opacity:1;fill:#373737;fill-opacity:1;fill-rule:evenodd;stroke:none;stroke-width:1.16666663;stroke-linecap:square;stroke-linejoin:round;stroke-miterlimit:4;stroke-dasharray:none;stroke-dashoffset:0;stroke-opacity:1;marker:none;color-rendering:auto;image-rendering:auto;shape-rendering:auto;text-rendering:auto;enable-background:accumulate" id="rect4411-3-3" width="2" height="3" x="-16" y="12" transform="rotate(-90)"/><rect style="color:#000;clip-rule:nonzero;display:inline;overflow:visible;visibility:visible;opacity:1;isolation:auto;mix-blend-mode:normal;color-interpolation:sRGB;color-interpolation-filters:linearRGB;solid-color:#000;solid-opacity:1;fill:#373737;fill-opacity:1;fill-rule:evenodd;stroke:none;stroke-width:1.16666663;stroke-linecap:square;stroke-linejoin:round;stroke-miterlimit:4;stroke-dasharray:none;stroke-dashoffset:0;stroke-opacity:1;marker:none;color-rendering:auto;image-rendering:auto;shape-rendering:auto;text-rendering:auto;enable-background:accumulate" id="rect4411-3-6" width="2" height="3" x="-9" y="-22" transform="scale(-1)"/><rect style="color:#000;clip-rule:nonzero;display:inline;overflow:visible;visibility:visible;opacity:1;isolation:auto;mix-blend-mode:normal;color-interpolation:sRGB;color-interpolation-filters:linearRGB;solid-color:#000;solid-opacity:1;fill:#373737;fill-opacity:1;fill-rule:evenodd;stroke:none;stroke-width:1.16666663;stroke-linecap:square;stroke-linejoin:round;stroke-miterlimit:4;stroke-dasharray:none;stroke-dashoffset:0;stroke-opacity:1;marker:none;color-rendering:auto;image-rendering:auto;shape-rendering:auto;text-rendering:auto;enable-background:accumulate" id="rect4411-3-3-7" width="2" height="3" x="-9" y="-11" transform="scale(-1)"/><path id="path853" transform="translate(0 7)" d="M8 3a5 5 0 0 0-5 5 5 5 0 0 0 5 5 5 5 0 0 0 5-5 5 5 0 0 0-5-5zm0 1a4 4 0 0 1 4 4 4 4 0 0 1-4 4 4 4 0 0 1-4-4 4 4 0 0 1 4-4z" style="opacity:1;vector-effect:none;fill:#373737;fill-opacity:1;stroke:none;stroke-width:4;stroke-linecap:square;stroke-linejoin:round;stroke-miterlimit:4;stroke-dasharray:none;stroke-dashoffset:3.20000005;stroke-opacity:.55063291"/><circle style="opacity:1;vector-effect:none;fill:#373737;fill-opacity:1;stroke:none;stroke-width:4;stroke-linecap:square;stroke-linejoin:round;stroke-miterlimit:4;stroke-dasharray:none;stroke-dashoffset:3.20000005;stroke-opacity:.55063291" id="path858" cx="8" cy="15" r="1"/></g></svg>

<?xml version="1.0" encoding="UTF-8" standalone="no"?>
<svg
   xmlns:dc="http://purl.org/dc/elements/1.1/"
   xmlns:cc="http://creativecommons.org/ns#"
   xmlns:rdf="http://www.w3.org/1999/02/22-rdf-syntax-ns#"
   xmlns:svg="http://www.w3.org/2000/svg"
   xmlns="http://www.w3.org/2000/svg"
   version="1.1"
   width="16"
   height="16"
   id="svg6190">
  <metadata
     id="metadata6196">
    <rdf:RDF>
      <cc:Work
         rdf:about="">
        <dc:format>image/svg+xml</dc:format>
        <dc:type
           rdf:resource="http://purl.org/dc/dcmitype/StillImage" />
        <dc:title></dc:title>
        <dc:date>2021</dc:date>
        <dc:creator>
          <cc:Agent>
            <dc:title>Timothée Giet</dc:title>
          </cc:Agent>
        </dc:creator>
        <cc:license
           rdf:resource="http://creativecommons.org/licenses/by-sa/4.0/" />
      </cc:Work>
      <cc:License
         rdf:about="http://creativecommons.org/licenses/by-sa/4.0/">
        <cc:permits
           rdf:resource="http://creativecommons.org/ns#Reproduction" />
        <cc:permits
           rdf:resource="http://creativecommons.org/ns#Distribution" />
        <cc:requires
           rdf:resource="http://creativecommons.org/ns#Notice" />
        <cc:requires
           rdf:resource="http://creativecommons.org/ns#Attribution" />
        <cc:permits
           rdf:resource="http://creativecommons.org/ns#DerivativeWorks" />
        <cc:requires
           rdf:resource="http://creativecommons.org/ns#ShareAlike" />
      </cc:License>
    </rdf:RDF>
  </metadata>
  <defs
     id="defs6194" />
  <g
     id="g6344"
     transform="translate(0,-7)">
    <rect
       style="color:#000000;clip-rule:nonzero;display:inline;overflow:visible;visibility:visible;opacity:1;isolation:auto;mix-blend-mode:normal;color-interpolation:sRGB;color-interpolation-filters:linearRGB;solid-color:#000000;solid-opacity:1;fill:#373737;fill-opacity:1;fill-rule:evenodd;stroke:none;stroke-width:1.16666663;stroke-linecap:square;stroke-linejoin:round;stroke-miterlimit:4;stroke-dasharray:none;stroke-dashoffset:0;stroke-opacity:1;marker:none;color-rendering:auto;image-rendering:auto;shape-rendering:auto;text-rendering:auto;enable-background:accumulate"
       id="rect4411-3"
       width="2"
       height="3"
       x="-16"
       y="1"
       transform="rotate(-90)" />
    <rect
       style="color:#000000;clip-rule:nonzero;display:inline;overflow:visible;visibility:visible;opacity:1;isolation:auto;mix-blend-mode:normal;color-interpolation:sRGB;color-interpolation-filters:linearRGB;solid-color:#000000;solid-opacity:1;fill:#373737;fill-opacity:1;fill-rule:evenodd;stroke:none;stroke-width:1.16666663;stroke-linecap:square;stroke-linejoin:round;stroke-miterlimit:4;stroke-dasharray:none;stroke-dashoffset:0;stroke-opacity:1;marker:none;color-rendering:auto;image-rendering:auto;shape-rendering:auto;text-rendering:auto;enable-background:accumulate"
       id="rect4411-3-3"
       width="2"
       height="3"
       x="-16"
       y="12"
       transform="rotate(-90)" />
    <rect
       style="color:#000000;clip-rule:nonzero;display:inline;overflow:visible;visibility:visible;opacity:1;isolation:auto;mix-blend-mode:normal;color-interpolation:sRGB;color-interpolation-filters:linearRGB;solid-color:#000000;solid-opacity:1;fill:#373737;fill-opacity:1;fill-rule:evenodd;stroke:none;stroke-width:1.16666663;stroke-linecap:square;stroke-linejoin:round;stroke-miterlimit:4;stroke-dasharray:none;stroke-dashoffset:0;stroke-opacity:1;marker:none;color-rendering:auto;image-rendering:auto;shape-rendering:auto;text-rendering:auto;enable-background:accumulate"
       id="rect4411-3-6"
       width="2"
       height="3"
       x="-9"
       y="-22"
       transform="scale(-1)" />
    <rect
       style="color:#000000;clip-rule:nonzero;display:inline;overflow:visible;visibility:visible;opacity:1;isolation:auto;mix-blend-mode:normal;color-interpolation:sRGB;color-interpolation-filters:linearRGB;solid-color:#000000;solid-opacity:1;fill:#373737;fill-opacity:1;fill-rule:evenodd;stroke:none;stroke-width:1.16666663;stroke-linecap:square;stroke-linejoin:round;stroke-miterlimit:4;stroke-dasharray:none;stroke-dashoffset:0;stroke-opacity:1;marker:none;color-rendering:auto;image-rendering:auto;shape-rendering:auto;text-rendering:auto;enable-background:accumulate"
       id="rect4411-3-3-7"
       width="2"
       height="3"
       x="-9"
       y="-11"
       transform="scale(-1)" />
    <path
       id="path853"
       transform="translate(0,7)"
       d="M 8,3 A 5,5 0 0 0 3,8 5,5 0 0 0 8,13 5,5 0 0 0 13,8 5,5 0 0 0 8,3 Z M 8,4 A 4,4 0 0 1 12,8 4,4 0 0 1 8,12 4,4 0 0 1 4,8 4,4 0 0 1 8,4 Z"
       style="opacity:1;vector-effect:none;fill:#373737;fill-opacity:1;stroke:none;stroke-width:4;stroke-linecap:square;stroke-linejoin:round;stroke-miterlimit:4;stroke-dasharray:none;stroke-dashoffset:3.20000005;stroke-opacity:0.55063291" />
    <circle
       style="opacity:1;vector-effect:none;fill:#373737;fill-opacity:1;stroke:none;stroke-width:4;stroke-linecap:square;stroke-linejoin:round;stroke-miterlimit:4;stroke-dasharray:none;stroke-dashoffset:3.20000005;stroke-opacity:0.55063291"
       id="path858"
       cx="8"
       cy="15"
       r="1" />
  </g>
  <g
     id="layer1"
     transform="translate(0,-6)" />
</svg>
